X:1
T:Algeria, 87.87 D
T:Algeria, 87.87 D
T:Daniel Brink Towner, 1914
T:Public Domain Courtesy of the Cyber Hymnal™
C:Daniel Brink Towner, 1914
Z:Public Domain
Z:Courtesy of the Cyber Hymnal™
%%score ( 1 2 ) ( 3 4 )
L:1/8
Q:1/4=110
M:9/8
K:Ab
V:1 treble 
V:2 treble 
V:3 bass 
V:4 bass 
V:1
 ([CE][DF])[A,C] | [CE]3 [CE]3 ([CA][DB])[Ec] | [DB]3 [DF]3 [DG]2 [DF] | E3 [EA]3 [DG]2 [CA] | %4
 [EB]6 ([CE][DF])[A,C] | [CE]3 [CE]3 ([CA][DB])[Ec] | [DB]3 [DF]3 [EG]2 [EA] | %7
 [=DB]3 [DF]3 [DB]2 [Dc] | [EB]6 [EB]2 [Ec] | [Ed]3 [EG]3 [Ec]2 [DB] | [CA]3 [CF]3 [CF]2 [CG] | %11
 [FA]3 [CF]3 [FA]2 [FB] | [=Ec]6 [_Ec]2 [Ed] | [Ee]3 [EA]3 [_GB]2 [Gc] | [Fd]3 [DF]3 [DG]2 [DF] | %15
 [CE]3 [Ec]3 [DB]2 [DE] | [CA]6 |] %17
V:2
 x3 | x9 | x9 | E3 x6 | x9 | x9 | x9 | x9 | x9 | x9 | x9 | x9 | x9 | x9 | x9 | x9 | x6 |] %17
V:3
 [A,,A,]2 [A,,E,] | [A,,A,]3 [A,,A,]3 [A,,A,]2 [A,,A,] | [D,F,]3 [D,A,]3 [D,A,]2 [D,A,] | %3
 [C,A,]3 [A,,C]3 [E,B,]2 [E,A,] | [E,G,]6 [A,,A,]2 [A,,E,] | [A,,A,]3 [A,,A,]3 [A,,A,]2 [A,,A,] | %6
 [D,F,]3 [D,A,]3 [D,A,]2 [C,A,] | [B,,A,]3 [B,,A,]3 [B,,F,]2 [B,,A,] | [E,G,]6 [E,G,]2 [E,A,] | %9
 [E,B,]3 [E,B,]3 [E,G,]2 [E,G,] | [F,A,]3 [F,A,]3 [F,A,]2 [F,B,] | [F,C]3 [F,A,]3 [D,A,]2 [D,F,] | %12
 [C,G,]6 A,2 [A,B,] | [A,C]3 [A,C]3 [A,C]2 A, | [D,A,]3 [D,A,]3 [D,A,]2 [D,A,] | %15
 [E,A,]3 [E,A,]3 [E,G,]2 [E,B,] | [A,,A,]6 |] %17
V:4
 x3 | x9 | x9 | x9 | x9 | x9 | x9 | x9 | x9 | x9 | x9 | x9 | x6 A,2 x | x8 A, | x9 | x9 | x6 |] %17

